X:1
T:THAT DIZZY RAG
T:THAT DIZZY RAG
T:Arr. by Paul L. Specht
T:Composed by EARL S. ROGERS
T:Copyright 1916 by Earl S.Rogers
T:Copyright 1916 by Earl S.Rogers
T:Copyright 1916 by Earl S.Rogers
C:Arr. by Paul L. Specht
Z:Composed by EARL S. ROGERS
Z:Copyright 1916 by Earl S.Rogers
%%score { ( 1 3 ) | 2 }
L:1/8
Q:1/4=90
M:2/4
K:Bb
V:1 treble nm="Piano" snm="Pno."
V:3 treble 
V:2 bass 
V:1
 z/ [=Bdfg]/[Bdfg]/[Bdfg]/ z/ [Bdfg]/[Bdfg]/[Bdfg]/ | %1
 z/ !>![_Be_g_b][Aa]/ !>![Begb]/[Aa]/[_A_a]/[_G_g]/ | %2
 z/ [Ff]/[=E=e]/[Ff]/ [^F^f]/[Gg]/[^G^g]/[Aa]/ | !>![Bdfb] z !arpeggio!!>!!fermata![fc'f']2 |: %4
{fga} !>![Bb]!>![Aa] !>![_A_a]<!>![Gg] | [_G_g](!>![Ff]/B/ d/)(!>![Gg]/B/d/) | %6
 (!>![Ff]/B/d/)!>![Gg]/- [Gg]2- | [Gg][Ff][Gg][_G_g] | (!>![Ff]/A/c/[Gg]/-) [Gg][Ff] | %9
 (!>![Aa]/c/e/[Gg]/-) [Gg][Ff] | (!>![Bb]/d/f/[Aa]/-) [Aa][Gg] | !>![F=A_ef]3 (3f/g/a/ | %12
 !>![Bb]!>![Aa] !>![_A_a]<!>![Gg] | [_G_g](!>![Ff]/B/ d/)(!>![Gg]/B/d/) | %14
 (!>![Ff]/B/d/)!>![Gg]/- [Gg]2- | [Gg][Ff][=E=e][Ff] | (!>![Gg]/B/e/[Aa]/-) [Aa][Gg] | %17
 (!>![Ff]/B/d/[Gg]/-) [Gg][Ff] | (!>![=Ed]/G/B/[Ed]/-) [Ed][_Ec] |1 %19
 !>![DFB] z !>!!fermata![FAef]2 :|2 !>![DFB] z z2 |: %21
 z/ [=Bdfg]/[Bdfg]/[Bdfg]/ z/ [Bdfg]/[Bdfg]/[Bdfg]/ | %22
 z/ [=Bdfg]/[Bdfg]/[Bdfg]/ z/ [Bdfg]/[Bdfg]/[Bdfg]/ | %23
 z/ [=EG_Bc]/[EGBc]/[EGBc]/ z/ [EGBc]/[EGBc]/[EGBc]/ | %24
 z/ [=EGBc]/[EGBc]/[EGBc]/ z/ [EGBc]/[EGBc]/[EGBc]/ | z !>![FAf]2 [=E=e] | %26
 z/ !>![FAf][=E=e]/ !>![FAf]2 |!f! z !>![B_e_gb]2 [!courtesy!_Geg] | !>![FBf]4 | %29
 z/ [=Bdfg]/[Bdfg]/[Bdfg]/ z/ [Bdfg]/[Bdfg]/[Bdfg]/ | %30
 z/ [=Bdfg]/[Bdfg]/[Bdfg]/ z/ [Bdfg]/[Bdfg]/[Bdfg]/ | %31
 z/ [=EG_Bc]/[EGBc]/[EGBc]/ z/ [EGBc]/[EGBc]/[EGBc]/ | %32
 z/ [=EGBc]/[EGBc]/[EGBc]/ z/ [EGBc]/[EGBc]/[EGBc]/ | z/ (G/B/e/ g/e/B/G/) | z/ (F/B/d/ f/d/B/F/) | %35
 z/ =E/G/B/ [EGd]2- |1 [EGd][_EFc] [DFB] z :|2{/x-} [=EGd][_EFc] [DFB] z |: %38
 z/ ^F/.[GBd]/.[GBd]/ z/ F/.[GBd]/.[GBd]/ | z/ ^F/.[GBd]/.[GBd]/ z/ F/.[GBd]/.[GBd]/ | %40
 z/ =F/.[^FAd]/.[FAd]/ z/ =F/.[^FAd]/.[FAd]/ | z/ =F/.[^FAd]/.[FAd]/ z/ =F/.[^FAd]/.[FAd]/ | %42
 z/ ^F/.[GBd]/.[GBd]/ z/ F/.[GBd]/.[GBd]/ | z/ ^F/.[GBd]/.[GBd]/ z/ F/.[GBd]/.[GBd]/ | %44
 !>![^FAd] z z2 |1 z !>![cd^fa]!>![Bdg] z :|2 z !>![cd^fa]!>![Bdg] (3f/g/a/ || %47
 !>![Bb]!>![Aa] !>![_A_a]<!>![Gg] | [_G_g](!>![Ff]/B/ d/)(!>![Gg]/B/d/) | %49
 ([Ff]/B/d/)[Gg]/- [Gg]2- | [Gg][Ff][Gg][_G_g] | (!>![Ff]/A/c/[Gg]/-) [Gg][Ff] | %52
 (!>![Aa]/c/e/[Gg]/-) [Gg][Ff] | (!>![Bb]/d/f/[Aa]/-) [Aa][Gg] | !>![F=A_ef]3 (3f/g/a/ | %55
 !>![Bb]!>![Aa] !>![_A_a]<!>![Gg] | [_G_g](!>![Ff]/B/ d/)(!>![Gg]/B/d/) | %57
 (!>![Ff]/B/d/)!>![Gg]/- [Gg]2- | [Gg][Ff][=E=e][Ff] | (!>![Gg]/B/e/[Aa]/-) [Aa][Gg] | %60
 (!>![Ff]/B/d/[Gg]/-) [Gg][Ff] | (!>![=Ed]/G/B/[Ed]/-) [Ed][_Ec] | !>![DFB] z !arpeggio![FAef]2 | %63
{fga} !>!b[Aa] !>![_A_a]<!>![Gg] | [_G_g][Ff] [=E=e][Ff] | [^F^f][Gg] [^G^g]<[Aa] | %66
 [Bdfb] z!8va(! !>![bd'f'b']!8va)! z |] %67
V:2
 !>![^C,^C]!>![D,D] !>![^C,,^C,]!>![D,,D,] | !>![E,,E,]!>![F,,F,] [_G,,_G,] [G,B,E] | %2
 !>![F,,F,] [F,B,D] [=E,,=E,]/[_E,,_E,]/[D,,D,]/[C,,C,]/ | %3
 !>![B,,,B,,] z !arpeggio!!>!!fermata![F,A,E]2 |: !>![B,,B,]!>![A,,A,] !>![_A,,_A,]<!>![G,,G,] | %5
 z/ !>![_G,,_G,]/ z z2 | D, [F,B,D][F,B,D] [=E,,=E,] | [F,,F,] [F,B,D]2 [^G,,^G,] | %8
 !>![A,,A,] [F,A,E][F,A,E] !>![^G,,^G,] | !>![A,,A,] [F,A,E][F,A,E] !>![A,,A,] | %10
 !>![B,,B,] [F,B,D] [=E,,=E,]2 | !>![F,,F,][^F,,^F,]/!>![G,,G,]/- [G,,G,]/[^G,,^G,]/!>![A,,A,] | %12
 !>![B,,B,]!>![A,,A,] !>![_A,,_A,]<!>![G,,G,] | z/ !>![_G,,_G,]/ z z2 | %14
 D, [F,B,D][F,B,D] [=E,,=E,] | [F,,F,] [F,B,D][F,B,^C][F,B,D] | %16
 !>![C,,C,] [G,B,E][G,B,E] !>![=E,,=E,] | !>![F,,F,] [F,B,D] !>![B,,B,]!>![_A,,_A,] | %18
 !>![G,,G,] [=E,B,C][E,B,C] !>![A,,A,] |1 !>![B,,B,] z !>!!fermata![F,,F,]2 :|2 %20
 !>![B,,B,] z !>![C,C]2 |: !>![^C,^C][D,D] !>![C,C][D,D] | !>![^C,^C][D,D] !>![C,C][D,D] | %23
 !>![=C,=C][=B,,=B,] !>![C,C][D,D] | !>![C,C][!courtesy!_B,,!courtesy!_B,] !>![G,,G,][^G,,^G,] | %25
 !>![A,,A,] [F,A,E][F,A,E] !>![B,,B,] | [A,,A,] [F,A,E] [F,A,E]2 | [B,,B,]3 [C,C] | %28
 [D,D]2 (!>!B,,/D,/F,/B,/) | !>![^C,^C][D,D] !>![C,C][D,D] | !>![^C,^C][D,D] !>![C,C][D,D] | %31
 !>![=C,=C][=B,,=B,] !>![C,C][D,D] | !>![C,C][!courtesy!_B,,!courtesy!_B,] !>![G,,G,][^G,,^G,] | %33
 !>![B,,B,] [F,A,E][F,A,E] !>![E,,E,] | !>![D,,D,] [F,B,D][F,B,D] !>![D,,D,] | %35
 [C,,C,] [=E,B,C] [E,B,C]2- |1 [E,B,C]!>![A,,A,] !>![B,,B,] z :|2 %37
{/x-} [E,B,C]!>![A,,A,] !>![B,,B,]!>![^F,,^F,] |: !>![G,,G,] [G,B,][G,B,] !>![A,,A,] | %39
 !>![G,,G,] [G,B,D][G,B,D] !>![^G,,^G,] | !>![A,,A,] [D,^F,C][D,F,C] !>![^G,,^G,] | %41
 !>![A,,A,] [D,^F,C][D,F,C] !>![^F,,^F,] | !>![G,,G,] [G,B,][G,B,] !>![A,,A,] | %43
 !>![G,,G,] [G,B,D][G,B,D] !>![^G,,^G,] | !>![A,,A,] z z2 |1 z !>![D,,D,]!>![G,,G,] [^F,,^F,] :|2 %46
 z !>![D,,D,]!>![G,,G,] z || !>![B,,B,]!>![A,,A,] !>![_A,,_A,]<!>![G,,G,] | z/ [_G,,_G,]/ z z2 | %49
 D, [F,B,D][F,B,D] [=E,,=E,] | [F,,F,] [F,B,D]2 [^G,,^G,] | %51
 !>![A,,A,] [F,A,E][F,A,E] !>![^G,,^G,] | !>![A,,A,] [F,A,E][F,A,E] !>![A,,A,] | %53
 !>![B,,B,] [F,B,D] [=E,,=E,]2 | !>![F,,F,][^F,,^F,]/!>![G,,G,]/- [G,,G,]/[^G,,^G,]/!>![A,,A,] | %55
 !>![B,,B,]!>![A,,A,] !>![_A,,_A,]<!>![G,,G,] | z/ !>![_G,,_G,]/ z z2 | %57
 D, [F,B,D][F,B,D] [=E,,=E,] | [F,,F,] [F,B,D][F,B,^C][F,B,D] | %59
 !>![C,,C,] [G,B,E][G,B,E] !>![=E,,=E,] | !>![F,,F,] [F,B,D] !>![B,,B,]!>![_A,,_A,] | %61
 !>![G,,G,] [=E,B,C][E,B,C] !>![A,,A,] | !>![B,,B,] z !arpeggio![F,,F,]2 | %63
 !>![B,,B,][A,,A,] !>![_A,,_A,]<!>![G,,G,] | [_G,,_G,][F,,F,] [=E,,=E,][F,,F,] | %65
 [=E,,=E,][_E,,_E,] [D,,D,]<[C,,C,] | [B,,,B,,] z [B,,B,] z |] %67
V:3
 x4 | x4 | x4 | x4 |: x4 | x4 | x4 | x4 | z2 z/ [ce]/ z | z2 z/ [ce]/ z | z2 z/ [^c=e]/ z | x4 | %12
 x4 | x4 | x4 | x4 | z2 z/ [ce]/ z | z2 z/ [Bd]/ z | z2 z/ [GB]/ z |1 x4 :|2 x4 |: x4 | x4 | x4 | %24
 x4 | x4 | x4 | x4 | x4 | x4 | x4 | x4 | x4 | x4 | x4 | x4 |1 x4 :|2 x4 |: x4 | x4 | x4 | x4 | x4 | %43
 x4 | x4 |1 x4 :|2 x4 || x4 | x4 | x4 | x4 | z2 z/ [ce]/ z | z2 z/ [ce]/ z | z2 z/ [^c=e]/ z | x4 | %55
 x4 | x4 | x4 | x4 | z2 z/ [ce]/ z | z2 z/ [Bd]/ z | z2 z/ [GB]/ z | x4 | x4 | x4 | x4 | %66
 x2!8va(! x!8va)! x |] %67

